Simply-Orange-Circles/scalable/apps/apport.svg

<?xml version="1.0" encoding="UTF-8" standalone="no"?>
<svg
   xmlns:dc="http://purl.org/dc/elements/1.1/"
   xmlns:cc="http://creativecommons.org/ns#"
   xmlns:rdf="http://www.w3.org/1999/02/22-rdf-syntax-ns#"
   xmlns:svg="http://www.w3.org/2000/svg"
   xmlns="http://www.w3.org/2000/svg"
   xmlns:sodipodi="http://sodipodi.sourceforge.net/DTD/sodipodi-0.dtd"
   xmlns:inkscape="http://www.inkscape.org/namespaces/inkscape"
   width="48"
   height="48"
   viewBox="0 0 12.7 12.7"
   version="1.1"
   id="svg4"
   sodipodi:docname="apport.svg"
   inkscape:version="0.92.4 (5da689c313, 2019-01-14)">
  <metadata
     id="metadata10">
    <rdf:RDF>
      <cc:Work
         rdf:about="">
        <dc:format>image/svg+xml</dc:format>
        <dc:type
           rdf:resource="http://purl.org/dc/dcmitype/StillImage" />
        <dc:title></dc:title>
      </cc:Work>
    </rdf:RDF>
  </metadata>
  <defs
     id="defs8" />
  <sodipodi:namedview
     pagecolor="#ffffff"
     bordercolor="#666666"
     borderopacity="1"
     objecttolerance="10"
     gridtolerance="10"
     guidetolerance="10"
     inkscape:pageopacity="0"
     inkscape:pageshadow="2"
     inkscape:window-width="1087"
     inkscape:window-height="480"
     id="namedview6"
     showgrid="false"
     inkscape:zoom="4.9166667"
     inkscape:cx="2.1355932"
     inkscape:cy="24"
     inkscape:window-x="0"
     inkscape:window-y="25"
     inkscape:window-maximized="0"
     inkscape:current-layer="svg4" />
  <path
     d="m 6.344,0.073 a 6.29,6.29 0 0 0 -6.29,6.29 6.29,6.29 0 0 0 6.29,6.288 6.29,6.29 0 0 0 6.29,-6.289 6.29,6.29 0 0 0 -6.29,-6.29 z M 6.326,1.009 A 5.407,5.407 0 0 1 11.733,6.416 5.407,5.407 0 0 1 6.326,11.823 5.407,5.407 0 0 1 0.92,6.416 5.407,5.407 0 0 1 6.326,1.01 Z M 7.391,2.407 C 6.896,2.414 7.296,3.585 7.072,4.063 6.834,4.573 6.617,4.434 6.547,4.288 6.477,4.142 6.634,2.796 5.952,3.062 5.449,3.258 6.24,4.095 6.182,4.387 6.003,5.28 4.898,4.921 4.711,4.672 4.524,4.423 3.176,2.48 2.513,3.484 1.849,4.488 4.517,4.981 4.473,5.026 4.427,5.071 5.135,5.369 5.057,5.491 4.979,5.612 4.895,5.894 4.508,6.013 4.121,6.132 3.469,5.473 3.309,6.166 c -0.16,0.694 0.941,0.15 1.22,0.106 0.279,-0.045 0.266,0.08 0.332,0.19 0.048,0.08 0.013,0.212 0.013,0.28 0,0.066 -0.032,0.456 -0.182,0.492 C 3.952,7.414 2.781,7.591 3.212,8.312 3.642,9.034 4.615,7.462 5,7.356 5.385,7.248 5.564,7.453 5.684,7.531 5.805,7.609 5.961,7.741 5.862,8.27 5.762,8.798 4.611,10.333 5.542,10.293 6.472,10.253 6.113,8.578 6.279,8.411 6.445,8.245 6.844,8.052 7.172,8.143 7.499,8.233 7.512,9.107 7.704,8.946 8.004,8.696 7.346,8.131 7.467,7.976 7.587,7.822 7.673,7.577 7.913,7.503 8.754,7.244 9.745,9.329 10.21,8.465 10.676,7.601 8.76,7.36 8.666,7.067 8.573,6.774 8.411,6.687 8.488,6.565 8.566,6.444 8.624,6.635 8.79,6.469 8.956,6.302 10.117,7.302 10.283,6.636 10.448,5.969 8.657,6.203 8.657,6.068 8.657,5.934 8.915,5.753 8.887,5.611 8.847,5.399 8.664,5.308 8.804,5.256 8.943,5.204 10.14,5.616 10.103,5.121 10.063,4.585 9.289,5.055 8.852,5.072 8.642,5.08 8.601,4.812 8.604,4.778 8.619,4.582 8.813,4.603 8.787,4.456 8.753,4.267 8.499,4.4 8.531,4.246 8.613,3.858 9.577,3.641 9.184,3.256 8.792,2.871 8.519,3.818 8.244,4.153 8.049,4.391 7.826,4.509 7.602,4.441 7.443,4.391 7.311,4.423 7.338,4.015 7.364,3.607 8.166,2.588 7.503,2.421 A 0.435,0.435 0 0 0 7.391,2.407 Z"
     id="path2"
     inkscape:connector-curvature="0"
     style="fill:#ff7f2a" />
</svg>

<svg xmlns="http://www.w3.org/2000/svg" width="48" height="48" viewBox="0 0 12.7 12.7"><path fill="#ff7f2a" d="M6.34.07a6.29 6.29 0 0 0-6.29 6.3 6.29 6.29 0 0 0 6.3 6.28 6.29 6.29 0 0 0 6.28-6.29A6.29 6.29 0 0 0 6.34.07zm-.01.94a5.4 5.4 0 0 1 5.4 5.4 5.4 5.4 0 0 1-5.4 5.41 5.4 5.4 0 0 1-5.41-5.4A5.4 5.4 0 0 1 6.32 1zm1.06 1.4c-.5 0-.1 1.17-.32 1.65-.24.51-.45.37-.52.23s.08-1.5-.6-1.23c-.5.2.29 1.03.23 1.33-.18.89-1.28.53-1.47.28-.19-.25-1.53-2.19-2.2-1.19-.66 1 2 1.5 1.96 1.55-.04.04.67.34.59.46-.08.12-.16.4-.55.52s-1.04-.54-1.2.16c-.16.69.94.15 1.22.1.28-.04.26.08.33.2.05.07.01.2.01.27s-.03.46-.18.5c-.74.17-1.9.35-1.48 1.07.43.72 1.4-.85 1.79-.95.38-.11.56.1.68.17.12.08.28.21.18.74-.1.53-1.25 2.06-.32 2.02.93-.04.57-1.71.74-1.88.16-.17.56-.36.9-.27.32.1.33.97.52.8.3-.24-.35-.8-.23-.96.12-.16.2-.4.44-.48.84-.26 1.83 1.83 2.3.97.47-.87-1.45-1.11-1.54-1.4-.1-.3-.26-.38-.18-.5.08-.13.13.07.3-.1.17-.17 1.33.83 1.5.17.16-.67-1.63-.44-1.63-.57 0-.14.25-.32.23-.46-.04-.21-.23-.3-.09-.35.14-.06 1.34.36 1.3-.14-.04-.53-.81-.06-1.25-.05-.2.01-.25-.26-.25-.3.02-.19.21-.17.19-.31-.04-.2-.3-.06-.26-.21.08-.4 1.05-.6.65-1-.39-.38-.66.57-.94.9-.2.24-.41.36-.64.3-.16-.06-.29-.03-.26-.43.02-.41.83-1.43.16-1.6a.43.43 0 0 0-.1-.01z"/></svg>
